assets/images/afrikons/time-outline.svg

<svg viewBox="0 0 50 50" xmlns="http://www.w3.org/2000/svg"><path d="m0 0h50v50h-50z" fill="none"/><path d="m25 1.42a23.58 23.58 0 1 0 23.58 23.58 23.61 23.61 0 0 0 -23.58-23.58zm7 39.07-7.59-15.32v-16.38h1.42v16l7.4 15z" fill="none"/><path d="m25 0a25 25 0 1 0 25 25 25 25 0 0 0 -25-25zm0 48.58a23.58 23.58 0 1 1 23.58-23.58 23.61 23.61 0 0 1 -23.58 23.58z"/><path d="m25.83 8.79h-1.42v16.38l7.55 15.32 1.27-.63-7.4-15.03z"/></svg>

<svg xmlns="http://www.w3.org/2000/svg" viewBox="0 0 50 50"><defs><style>.cls-1{fill:none;}</style></defs><title>time-outline</title><g id="Layer_2" data-name="Layer 2"><g id="Layer_1-2" data-name="Layer 1"><rect class="cls-1" width="50" height="50"/><path class="cls-1" d="M25,1.42A23.58,23.58,0,1,0,48.58,25,23.61,23.61,0,0,0,25,1.42Zm7,39.07L24.41,25.17V8.79h1.42v16l7.4,15Z"/><path d="M25,0A25,25,0,1,0,50,25,25,25,0,0,0,25,0Zm0,48.58A23.58,23.58,0,1,1,48.58,25,23.61,23.61,0,0,1,25,48.58Z"/><polygon points="25.83 8.79 24.41 8.79 24.41 25.17 31.96 40.49 33.23 39.86 25.83 24.83 25.83 8.79"/></g></g></svg>
